svgs/sharp-light/folder-image.svg

<svg xmlns="http://www.w3.org/2000/svg" viewBox="0 0 512 512"><!--! Font Awesome Pro 6.6.0 by @fontawesome - https://fontawesome.com License - https://fontawesome.com/license (Commercial License) Copyright 2024 Fonticons, Inc. --><path d="M32 32l192 0 48 64 208 0 32 0 0 32 0 320 0 32-32 0L32 480 0 480l0-32L0 64 0 32l32 0zm240 96l-16 0-9.6-12.8L208 64 32 64l0 384 448 0 0-320-208 0zM104 192a24 24 0 1 1 48 0 24 24 0 1 1 -48 0zm184.4-9.5l12.2 15.7 112 144 3.4 4.3 0 5.5 0 16 0 16-16 0-288 0-16 0 0-16 0-16 0-5.6 3.5-4.4 64-80 11.2-14 12.6 12.6 19.6 19.6 68.8-82.5 12.7-15.3zm-.9 51l-67.3 80.7-11.2 13.5-12.4-12.4L177.3 296l-44.8 56 247.2 0L287.6 233.5z"/></svg>

<svg xmlns="http://www.w3.org/2000/svg" viewBox="0 0 512 512"><!--! Font Awesome Pro 6.5.2 by @fontawesome - https://fontawesome.com License - https://fontawesome.com/license (Commercial License) Copyright 2024 Fonticons, Inc. --><path d="M32 32H224l48 64H480h32v32V448v32H480 32 0V448 64 32H32zm240 96H256l-9.6-12.8L208 64H32V448H480V128H272zM104 192a24 24 0 1 1 48 0 24 24 0 1 1 -48 0zm184.4-9.5l12.2 15.7 112 144 3.4 4.3V352v16 16H400 112 96V368 352v-5.6l3.5-4.4 64-80 11.2-14 12.6 12.6 19.6 19.6 68.8-82.5 12.7-15.3zm-.9 51l-67.3 80.7-11.2 13.5-12.4-12.4L177.3 296l-44.8 56H379.7L287.6 233.5z"/></svg>
